X:3
T:Scottish air from Johnson’s Musical Museum
%%VWML:SBG-1-1-20-0
F:http://www.vwml.org/record/SBG/1/1/20
Z:Original Sibleius Transcription by Martin and Shan Graebe
L:1/8
M:4/4
I:linebreak $
K:C
C2 | E D E G FE DC | G E G A G3 G | (cBc) d c B AG | E D E G A3 A |$ d c B A c2 BA | 
c c c d/e/ E2 DC | G E D C D2 G F | E2 AB A2  |] 
T:Taken down from W. Aggett by F.W.B. Sept 30. 1890
%%score ( 1 2 )
L:1/8
M:6/8
I:linebreak $
K:Bb
d | f3 d2 d | f3 g2 f | f2 d d2 ^c | d3 z2 d | f2 f g3 | f3 g2 f | f=ed d2 f |$ f2 z2 AB | 
c3 A2 B | c3 B2 A | A2 G2 |"^or" G G | d2 d d2 c | d3 c2 B | d3 G2  |] 
T:As also sung by W. Aggett, Chagford.
L:1/8
M:6/8
I:linebreak $
K:Bb
B2 B | d2 c d2 e | f3 g2 f | d2 c B2 G | B4 d | f2 f g3 | f3 g2 f | f=ed d2 f | c3 |$ GA | 
B2 B A2 B | c3 B2 A | A G2 |"^or he began" z6 |[K:Bb][M:6/8] GA | G2 dc cB |"^or" G2 | 
G3 d2 c/ z/ | 
T:“My bonnie Laddie’s lang a growin’” 
T:From “The British Minstrel” Glasgow, 1844, vol 2. p. 36
L:1/8
M:4/4
I:linebreak $
K:D
z A | B2 BB e2 dc | d2 ef B3 A | B2 (Bg){g} f3 e | defg{f} e2 ef |$ g2 (fe) f2 gf | edef B2 Be | 
d<eB>A G3 A | B e3 z2 ef |$ gbag f2 gf | eede B2 Be | d<=cB>A G3 A | B e3 z2  |] 
T:All the trees - Langworthy
%%score ( 1 2 )
L:1/8
M:6/8
I:linebreak $
K:C
V:1 treble nm="P1"
V:2 treble 
V:1
A | G2 E C2 E | (G2 A) A2 A | DE F ED C | A,2 z C | C2 C C2 C | D2 E E-D C | D2 E DC B, |$ 
A,3 z2 A | G2- E C2 E | G2 A A2 A | DE F EDC | A,2 z A,/C/ | C2 D C2 B, | A,3 A,2 A, | 
A,3 !fermata!E2  | ]
V:2
x | x6 | x6 | x6 | x4 | D2  E2  | x6 | x6 |$ x6 | x6 | x6 | x6 | x4 | x6 | x6 | x6 | 
T:All the trees - Vance
L:1/8
M:4/4
I:linebreak $
K:E
F2 | B2 B>c d2 c>B | B>A F>F !fermata!F3 G | A2 A>A A>B c>c | B>G E>G !fermata!F3 F |$ 
e3 B c>d !fermata!e2 | !fermata!f>d (B>B) B>c B>A | F>G A>c B>G E2 | D>E F<!fermata!B |] 



